dist/static/images/icons/svg/mail.svg

<svg width="108" height="76" viewBox="0 0 108 76" fill="none" xmlns="http://www.w3.org/2000/svg">
<path d="M74.1774 36.8485C72.9643 37.6477 72.9812 39.4328 74.2091 40.2091L104.931 59.6308C106.262 60.4727 107.999 59.5158 107.999 57.9403V18.2766C107.999 16.6842 106.229 15.7304 104.899 16.6066L74.1774 36.8485Z" fill="#E3EEFF"/>
<path d="M0 14.5638V61.5708L33.7904 40.2091C35.0183 39.4328 35.0351 37.6477 33.822 36.8485L0 14.5638Z" fill="#E3EEFF"/>
<path d="M101.25 0.875H6.75041C3.38216 0.875 0.709158 3.386 0.202908 6.61925L46.298 36.9888C50.9714 40.0678 57.0294 40.0678 61.7028 36.9888L107.798 6.61925C107.292 3.386 104.619 0.875 101.25 0.875Z" fill="#E3EEFF"/>
<path d="M66.4974 43.3197C65.8332 42.8997 64.9846 42.9076 64.3283 43.3398L55.8551 48.9208C55.2881 49.292 54.6468 49.4743 53.9988 49.4743C53.3508 49.4743 52.7096 49.292 52.1426 48.9208L43.6697 43.3341C43.0133 42.9013 42.1642 42.8932 41.4997 43.3136L0.214844 69.4273C0.734594 72.6335 3.39409 75.1243 6.74884 75.1243H101.249C104.604 75.1243 107.263 72.6335 107.783 69.4273L66.4974 43.3197Z" fill="#E3EEFF"/>
</svg>

<svg width="108" height="76" viewBox="0 0 108 76" fill="none" xmlns="http://www.w3.org/2000/svg"><path d="M74.177 36.849a2 2 0 00.032 3.36l30.722 19.422c1.331.842 3.068-.115 3.068-1.69V18.276c0-1.593-1.77-2.547-3.1-1.67L74.177 36.849zM0 14.564V61.57l33.79-21.362a2 2 0 00.032-3.36L0 14.564zM101.25.875H6.75C3.382.875.71 3.386.203 6.619l46.095 30.37a14 14 0 0015.405 0l46.095-30.37c-.506-3.233-3.179-5.744-6.548-5.744zM66.497 43.32a2 2 0 00-2.169.02l-8.473 5.58a3.372 3.372 0 01-1.856.554 3.37 3.37 0 01-1.856-.553l-8.473-5.587a2 2 0 00-2.17-.02L.215 69.427c.52 3.206 3.18 5.697 6.534 5.697h94.5c3.355 0 6.014-2.49 6.534-5.697L66.497 43.32z" fill="#E3EEFF"/></svg>
